icon-themes/breeze_svg/cmd/sc_basicshapes.cube.svg

<svg viewBox="0 0 16 16" xmlns="http://www.w3.org/2000/svg"><path d="m4 2-2 2h10v10l2-2v-10z" fill="#b3b3b3"/><path d="m2 4v10h10v-10z" fill="#4d4d4d"/></svg>

<svg xmlns="http://www.w3.org/2000/svg" viewBox="0 0 16 16">
 <path 
     style="fill:#b3b3b3" 
     d="M 4 2 L 2 4 L 12 4 L 12 14 L 14 12 L 14 2 L 4 2 z "
     />
 <path 
     style="fill:#4d4d4d" 
     d="M 2 4 L 2 14 L 12 14 L 12 4 L 2 4 z "
     />
 </svg>
